icons/tokens/0x1494CA1F11D487c2bBe4543E90080AeBa4BA3C2b/logo.svg

<svg width="32" height="32" viewBox="0 0 32 32" fill="none" xmlns="http://www.w3.org/2000/svg">
<path fill-rule="evenodd" clip-rule="evenodd" d="M32 16C32 7.17152 24.8285 0 16 0C7.17152 0 0 7.17152 0 16C0 24.8285 7.17152 32 16 32C24.8285 32 32 24.8285 32 16Z" fill="#8150E6"/>
<path fill-rule="evenodd" clip-rule="evenodd" d="M31.6573 19.2941C30.2464 26.0003 24.7213 31.0634 17.9174 31.8848L9.01501 22.9821H15.2912C17.9725 22.9821 19.6265 22.0602 20.8909 20.6739C22.1555 19.288 23.0304 17.4381 23.0304 14.6064C23.0304 12.6141 22.5971 11.1078 21.8998 9.90688C22.5203 10.2467 23.0528 10.6739 23.5296 11.1664L31.6573 19.2941Z" fill="#3C176B"/>
<path fill-rule="evenodd" clip-rule="evenodd" d="M18.1014 25.7926C20.7827 25.7926 22.4368 24.8704 23.7014 23.4845C24.9657 22.0986 25.8406 20.2486 25.8406 17.417C25.8406 14.5853 24.9657 12.7354 23.7014 11.3494C22.4368 9.96352 20.7827 9.04128 18.1014 9.04128H11.8253V25.7926H18.1014Z" fill="#9B74EC"/>
<path fill-rule="evenodd" clip-rule="evenodd" d="M19.8339 12.0976C20.0391 12.7235 20.1562 13.521 20.1562 14.6064C20.1562 16.8934 19.6365 17.9021 18.8707 18.7216C18.1053 19.5414 17.0941 20.1718 15.2912 20.1718H14.6359V11.8518H18.1015C18.7821 11.8518 19.3498 11.9414 19.8339 12.0976Z" fill="#3C176B"/>
<path fill-rule="evenodd" clip-rule="evenodd" d="M19.8339 12.0976C19.3497 11.9414 18.7821 11.8518 18.1014 11.8518H14.6358V20.1718H11.8253V9.04128H15.2912C17.0941 9.04128 18.1053 9.67168 18.8707 10.4915C19.2729 10.9219 19.6073 11.4048 19.8339 12.0976Z" fill="#6B42BD"/>
<path fill-rule="evenodd" clip-rule="evenodd" d="M20.8909 20.6739C19.6265 22.0602 17.9725 22.9821 15.2912 22.9821H9.01501V6.23103H15.2912C17.9725 6.23103 19.6265 7.15295 20.8909 8.53887C22.1555 9.92511 23.0304 11.775 23.0304 14.6064C23.0304 17.4381 22.1555 19.288 20.8909 20.6739ZM11.8253 9.04127V20.1718H15.2912C17.0941 20.1718 18.1053 19.5414 18.8707 18.7216C19.6365 17.9021 20.1561 16.8934 20.1561 14.6064C20.1561 12.3197 19.6365 11.311 18.8707 10.4915C18.1053 9.67167 17.0941 9.04127 15.2912 9.04127H11.8253Z" fill="white"/>
</svg>

<svg width="32" height="32" fill="none" xmlns="http://www.w3.org/2000/svg"><path fill-rule="evenodd" clip-rule="evenodd" d="M32 16c0-8.828-7.172-16-16-16S0 7.172 0 16s7.172 16 16 16 16-7.172 16-16z" fill="#8150E6"/><path fill-rule="evenodd" clip-rule="evenodd" d="M31.657 19.294a16 16 0 01-13.74 12.59l-8.902-8.902h6.276c2.681 0 4.335-.922 5.6-2.308 1.265-1.386 2.14-3.236 2.14-6.068 0-1.992-.434-3.498-1.131-4.7.62.34 1.153.768 1.63 1.26l8.127 8.128z" fill="#3C176B"/><path fill-rule="evenodd" clip-rule="evenodd" d="M18.101 25.793c2.682 0 4.336-.923 5.6-2.308 1.265-1.386 2.14-3.236 2.14-6.068 0-2.832-.875-4.682-2.14-6.068-1.264-1.385-2.918-2.308-5.6-2.308h-6.276v16.752h6.276z" fill="#9B74EC"/><path fill-rule="evenodd" clip-rule="evenodd" d="M19.834 12.098c.205.625.322 1.423.322 2.508 0 2.287-.52 3.296-1.285 4.116-.766.82-1.777 1.45-3.58 1.45h-.655v-8.32h3.466c.68 0 1.248.09 1.732.246z" fill="#3C176B"/><path fill-rule="evenodd" clip-rule="evenodd" d="M19.834 12.098c-.484-.157-1.052-.246-1.733-.246h-3.465v8.32h-2.81V9.042h3.465c1.803 0 2.814.63 3.58 1.45.402.43.736.913.963 1.606z" fill="#6B42BD"/><path fill-rule="evenodd" clip-rule="evenodd" d="M20.89 20.674c-1.264 1.386-2.918 2.308-5.599 2.308H9.015V6.231h6.276c2.681 0 4.335.922 5.6 2.308 1.265 1.386 2.14 3.236 2.14 6.067 0 2.832-.875 4.682-2.14 6.068zM11.826 9.04v11.13h3.466c1.803 0 2.814-.63 3.58-1.45.766-.819 1.285-1.828 1.285-4.115 0-2.286-.52-3.295-1.285-4.114-.766-.82-1.777-1.45-3.58-1.45h-3.466z" fill="#fff"/></svg>
